src/topics/icons/linode.svg

<?xml version="1.0" encoding="UTF-8" standalone="no"?>
<svg width="256px" height="307px" viewBox="0 0 256 307" version="1.1" xmlns="http://www.w3.org/2000/svg" xmlns:xlink="http://www.w3.org/1999/xlink" preserveAspectRatio="xMidYMid">
	<g>
		<path d="M66.7659,141.5946 L54.1269,57.6986 L2.9179,26.1016 L18.1719,104.9856 L66.7659,141.5946 Z M78.7509,231.8096 L70.6879,172.3196 L25.1449,134.6216 L36.9119,193.4576 L78.7509,231.8096 Z M42.5779,218.5176 L50.6409,263.1886 L89.4289,303.5026 L83.9809,257.9586 L42.5779,218.5176 Z M158.2889,204.7886 L138.3499,189.9706 C138.3499,189.9706 138.0659,195.2766 137.5329,195.6366 L122.9869,205.8786 L138.8939,218.9526 L139.8209,233.8256 L158.7239,249.2426 L158.2889,204.7886 Z M218.5409,161.3156 L214.9449,203.2086 L201.5439,194.3836 C201.5439,194.3836 203.0209,173.2026 203.0149,173.1916 C202.9369,173.0496 177.1919,155.7586 177.1919,155.7586 L178.0089,136.4736 L218.5409,161.3156 Z" fill="#004711"></path>
		<path d="M133.6646,106.9467 L129.9606,28.9347 L54.1276,57.6987 L66.7656,141.5947 L133.6646,106.9467 Z M137.1516,195.4187 L134.1006,135.9287 L70.6886,172.3197 L80.0586,233.3347 L137.1516,195.4187 Z M138.2406,219.6067 L83.9806,257.9587 L90.7366,304.8097 L140.2016,265.3677 L138.2406,219.6067 Z M159.1606,204.5707 L160.0316,249.8967 L199.2556,218.0817 L201.2166,174.9347 L159.1606,204.5707 Z M252.5896,138.9247 L247.4686,178.6937 L216.7976,203.3177 L220.4476,161.5337 L252.5896,138.9247 Z" fill="#00B159"></path>
		<path d="M140.2776,218.8469 C140.2756,218.8089 140.2616,218.7739 140.2576,218.7369 C140.2476,218.6369 140.2306,218.5399 140.2046,218.4439 C140.1896,218.3869 140.1716,218.3319 140.1506,218.2769 C140.1166,218.1869 140.0746,218.1009 140.0256,218.0169 C139.9976,217.9679 139.9706,217.9179 139.9376,217.8709 C139.8786,217.7869 139.8096,217.7109 139.7356,217.6369 C139.7006,217.6019 139.6696,217.5629 139.6316,217.5299 C139.6216,217.5209 139.6136,217.5099 139.6036,217.5009 L125.0926,205.6569 L138.4356,196.6669 C138.9686,196.3069 139.2746,195.7009 139.2456,195.0639 L139.1106,191.8989 L156.8026,205.4029 L157.1466,246.4109 L140.8706,232.7089 L140.2776,218.8469 Z M69.0476,172.8939 L77.2526,228.9659 L38.3666,192.3329 L27.1076,137.9509 L69.0476,172.8939 Z M135.5256,194.1899 L81.2356,230.7649 L72.7686,172.9059 L133.1526,138.5359 L135.5256,194.1899 Z M128.5436,30.7389 L131.7726,106.2329 L67.8846,139.4779 L56.0366,58.5999 L128.5436,30.7389 Z M52.3046,58.5199 L63.9526,138.0349 L20.0256,103.7999 L4.4996,28.7949 L52.3046,58.5199 Z M52.9816,262.8939 L44.6816,222.7889 L81.6796,259.1759 L87.6056,299.6439 L52.9816,262.8939 Z M138.5396,264.3529 L91.6306,301.7239 L85.3916,259.1409 L136.7456,222.3989 L138.5396,264.3529 Z M197.4276,217.4029 L160.8276,246.5949 L160.4856,205.4289 L199.8686,177.2599 L197.4276,217.4029 Z M202.5366,194.0249 L203.7766,173.6299 C203.7776,173.6069 203.7706,173.5859 203.7706,173.5629 C203.7716,173.5359 203.7796,173.5109 203.7786,173.4839 C203.7776,173.4029 203.7566,173.3249 203.7446,173.2459 C203.7356,173.1889 203.7346,173.1319 203.7206,173.0759 C203.6846,172.9339 203.6326,172.7969 203.5646,172.6669 C203.5586,172.6559 203.5566,172.6429 203.5506,172.6319 C203.4726,172.4899 203.3726,172.3619 203.2596,172.2439 C203.2366,172.2199 203.2086,172.2019 203.1846,172.1799 C203.1106,172.1099 203.0386,172.0389 202.9526,171.9809 L178.2976,155.6979 L178.6566,137.8299 L217.4576,162.0079 L213.9966,202.0009 L202.5366,194.0249 Z M217.7576,201.2209 L221.1466,162.0459 L251.7696,140.1299 L246.6226,178.2119 L217.7576,201.2209 Z M255.9996,136.0449 C255.9976,136.0099 255.9846,135.9779 255.9806,135.9429 C255.9726,135.8769 255.9586,135.8139 255.9436,135.7489 C255.9206,135.6469 255.8906,135.5489 255.8516,135.4529 C255.8276,135.3959 255.8026,135.3409 255.7736,135.2859 C255.7216,135.1899 255.6606,135.1019 255.5926,135.0169 C255.5566,134.9709 255.5236,134.9249 255.4826,134.8829 C255.3986,134.7949 255.3016,134.7199 255.1996,134.6499 C255.1676,134.6279 255.1446,134.5969 255.1106,134.5769 C255.1036,134.5719 255.0936,134.5709 255.0856,134.5659 C255.0746,134.5599 255.0666,134.5499 255.0546,134.5439 L213.1446,111.3209 C212.5676,111.0029 211.8596,111.0149 211.2946,111.3639 L175.9206,132.9889 C175.8636,133.0229 175.8186,133.0719 175.7666,133.1119 C175.7036,133.1599 175.6386,133.2039 175.5826,133.2599 C175.5236,133.3189 175.4766,133.3869 175.4266,133.4539 C175.3826,133.5119 175.3326,133.5659 175.2966,133.6289 C175.2506,133.7059 175.2216,133.7909 175.1876,133.8739 C175.1626,133.9369 175.1296,133.9949 175.1116,134.0609 C175.0866,134.1509 175.0796,134.2449 175.0686,134.3389 C175.0616,134.3999 175.0426,134.4569 175.0406,134.5189 L174.6646,153.2979 L160.2746,143.7949 C159.6786,143.3979 158.9106,143.3859 158.2986,143.7579 L137.5966,156.4139 L136.6996,135.3669 C136.6976,135.3229 136.6816,135.2829 136.6776,135.2389 C136.6656,135.1469 136.6536,135.0549 136.6296,134.9659 C136.6116,134.8999 136.5846,134.8379 136.5596,134.7739 C136.5286,134.6959 136.4976,134.6189 136.4556,134.5459 C136.4186,134.4809 136.3746,134.4229 136.3306,134.3629 C136.2836,134.2989 136.2376,134.2369 136.1826,134.1799 C136.1276,134.1229 136.0666,134.0739 136.0036,134.0229 C135.9636,133.9909 135.9306,133.9509 135.8876,133.9209 L114.3426,119.4499 L134.5096,108.9559 C135.1416,108.6249 135.5256,107.9579 135.4966,107.2439 L132.1096,28.0219 C132.1056,27.9249 132.0826,27.8319 132.0636,27.7379 C132.0556,27.6989 132.0546,27.6579 132.0436,27.6199 C132.0016,27.4609 131.9386,27.3099 131.8556,27.1699 C131.8406,27.1439 131.8196,27.1229 131.8036,27.0989 C131.7306,26.9859 131.6466,26.8819 131.5506,26.7879 C131.5156,26.7539 131.4776,26.7249 131.4396,26.6939 C131.3866,26.6499 131.3406,26.5999 131.2826,26.5619 C131.2376,26.5319 131.1866,26.5159 131.1396,26.4899 C131.1156,26.4769 131.0976,26.4569 131.0726,26.4449 L76.7356,0.2259 C76.3136,0.0219 75.8336,-0.0151 75.3886,0.1249 L1.2786,23.2089 C1.2736,23.2109 1.2686,23.2149 1.2636,23.2169 C1.2336,23.2259 1.2076,23.2469 1.1776,23.2579 C1.0396,23.3109 0.9056,23.3699 0.7866,23.4529 C0.7836,23.4549 0.7796,23.4559 0.7756,23.4579 C0.7346,23.4869 0.7066,23.5279 0.6686,23.5599 C0.5746,23.6369 0.4806,23.7139 0.4036,23.8089 C0.3486,23.8769 0.3116,23.9549 0.2666,24.0299 C0.2216,24.1039 0.1716,24.1729 0.1376,24.2529 C0.0966,24.3489 0.0776,24.4509 0.0546,24.5529 C0.0396,24.6149 0.0126,24.6709 0.0036,24.7339 C0.0026,24.7429 0.0056,24.7519 0.0046,24.7609 C-0.0064,24.8539 0.0046,24.9469 0.0086,25.0419 C0.0116,25.1279 0.0076,25.2139 0.0226,25.2979 C0.0256,25.3119 0.0226,25.3249 0.0256,25.3389 L16.5616,105.2069 C16.6516,105.6339 16.8846,106.0149 17.2326,106.2839 L39.6756,123.7769 L23.4496,131.5029 C23.4206,131.5169 23.3976,131.5389 23.3696,131.5539 C23.3446,131.5679 23.3176,131.5709 23.2936,131.5849 C23.2576,131.6069 23.2346,131.6389 23.2006,131.6629 C23.1076,131.7279 23.0216,131.7989 22.9426,131.8789 C22.8976,131.9239 22.8536,131.9679 22.8136,132.0169 C22.7346,132.1149 22.6716,132.2209 22.6136,132.3319 C22.5926,132.3729 22.5656,132.4099 22.5476,132.4529 C22.4836,132.6049 22.4356,132.7659 22.4146,132.9339 C22.4136,132.9409 22.4146,132.9469 22.4146,132.9539 C22.4116,132.9799 22.4166,133.0059 22.4146,133.0319 C22.4036,133.1829 22.4106,133.3329 22.4366,133.4789 C22.4396,133.4989 22.4356,133.5179 22.4396,133.5369 L34.8796,193.6459 C34.9566,194.0179 35.1446,194.3539 35.4196,194.6129 L51.0416,209.3269 L40.6896,215.6589 C40.5556,215.7409 40.4366,215.8419 40.3296,215.9519 C40.3006,215.9809 40.2796,216.0139 40.2536,216.0449 C40.1636,216.1509 40.0876,216.2639 40.0236,216.3869 C40.0026,216.4279 39.9826,216.4669 39.9646,216.5089 C39.8956,216.6689 39.8416,216.8369 39.8196,217.0149 C39.7996,217.1919 39.8146,217.3669 39.8446,217.5389 C39.8486,217.5579 39.8436,217.5769 39.8476,217.5969 L49.4856,264.1509 C49.5546,264.4819 49.7136,264.7879 49.9486,265.0369 L88.9306,306.4219 C88.9896,306.4839 89.0576,306.5329 89.1226,306.5859 C89.1466,306.6049 89.1666,306.6269 89.1916,306.6449 C89.3136,306.7329 89.4426,306.8059 89.5796,306.8609 C89.5856,306.8639 89.5906,306.8689 89.5976,306.8709 C89.6086,306.8759 89.6216,306.8739 89.6336,306.8779 C89.8386,306.9539 90.0536,306.9999 90.2726,306.9999 C90.4546,306.9999 90.6346,306.9629 90.8116,306.9079 C90.8526,306.8959 90.8916,306.8819 90.9316,306.8659 C90.9776,306.8479 91.0266,306.8389 91.0726,306.8159 C91.1476,306.7799 91.2036,306.7219 91.2706,306.6769 C91.3186,306.6459 91.3736,306.6309 91.4186,306.5949 L141.5636,266.6459 C142.0236,266.2769 142.2796,265.7139 142.2556,265.1289 L141.0836,237.6989 L157.8366,251.7989 C157.8656,251.8239 157.9036,251.8329 157.9346,251.8559 C158.0296,251.9259 158.1206,251.9999 158.2286,252.0519 C158.2646,252.0679 158.3016,252.0749 158.3376,252.0899 C158.3836,252.1079 158.4276,252.1219 158.4736,252.1359 C158.6536,252.1929 158.8356,252.2319 159.0206,252.2319 C159.2006,252.2319 159.3786,252.1949 159.5556,252.1409 C159.5966,252.1279 159.6366,252.1149 159.6776,252.0989 C159.7196,252.0829 159.7626,252.0749 159.8036,252.0559 C159.8966,252.0119 159.9716,251.9479 160.0536,251.8909 C160.0896,251.8659 160.1316,251.8559 160.1656,251.8289 L200.3626,219.7729 C200.7716,219.4429 201.0196,218.9629 201.0516,218.4409 L202.2746,198.3259 L214.5056,206.8389 C214.5306,206.8559 214.5596,206.8619 214.5846,206.8779 C214.6206,206.8999 214.6476,206.9319 214.6846,206.9519 C214.7566,206.9899 214.8336,207.0089 214.9076,207.0369 C214.9586,207.0559 215.0066,207.0789 215.0596,207.0939 C215.2216,207.1389 215.3876,207.1679 215.5536,207.1679 C215.7346,207.1679 215.9146,207.1319 216.0906,207.0779 C216.1316,207.0659 216.1706,207.0529 216.2106,207.0379 C216.2516,207.0219 216.2946,207.0139 216.3356,206.9959 C216.4356,206.9479 216.5216,206.8809 216.6096,206.8179 C216.6386,206.7979 216.6736,206.7899 216.7016,206.7679 L249.4926,180.6339 C249.8636,180.3379 250.1056,179.9079 250.1696,179.4389 L255.9866,136.3979 C255.9926,136.3519 255.9816,136.3079 255.9846,136.2619 C255.9886,136.1889 256.0036,136.1189 255.9996,136.0449 L255.9996,136.0449 Z" fill="#000000"></path>
	</g>
</svg>

<svg height="307" preserveAspectRatio="xMidYMid" viewBox="0 0 256 307" width="256" xmlns="http://www.w3.org/2000/svg"><path d="m66.7659 141.5946-12.639-83.896-51.209-31.597 15.254 78.884zm11.985 90.215-8.063-59.49-45.543-37.698 11.767 58.836zm-36.173-13.292 8.063 44.671 38.788 40.314-5.448-45.544zm115.711-13.729-19.939-14.818s-.284 5.306-.817 5.666l-14.546 10.242 15.907 13.074.927 14.873 18.903 15.417zm60.252-43.473-3.596 41.893-13.401-8.825s1.477-21.181 1.471-21.192c-.078-.142-25.823-17.433-25.823-17.433l.817-19.285z" fill="#004711"/><path d="m133.6646 106.9467-3.704-78.012-75.833 28.764 12.638 83.896zm3.487 88.472-3.051-59.49-63.412 36.391 9.37 61.015zm1.089 24.188-54.26 38.352 6.756 46.851 49.465-39.442zm20.92-15.036.871 45.326 39.224-31.815 1.961-43.147zm93.429-65.646-5.121 39.769-30.671 24.624 3.65-41.784z" fill="#00b159"/><path d="m140.2776 218.8469c-.002-.038-.016-.073-.02-.11-.01-.1-.027-.197-.053-.293-.015-.057-.033-.112-.054-.167-.034-.09-.076-.176-.125-.26-.028-.049-.055-.099-.088-.146-.059-.084-.128-.16-.202-.234-.035-.035-.066-.074-.104-.107-.01-.009-.018-.02-.028-.029l-14.511-11.844 13.343-8.99c.533-.36.839-.966.81-1.603l-.135-3.165 17.692 13.504.344 41.008-16.276-13.702zm-71.23-45.953 8.205 56.072-38.886-36.633-11.259-54.382zm66.478 21.296-54.29 36.575-8.467-57.859 60.384-34.37zm-6.982-163.451 3.229 75.494-63.888 33.245-11.848-80.878zm-76.239 27.781 11.648 79.515-43.927-34.235-15.526-75.005zm.677 204.374-8.3-40.105 36.998 36.387 5.926 40.468zm85.558 1.459-46.909 37.371-6.239-42.583 51.354-36.742zm58.888-46.95-36.6 29.192-.342-41.166 39.383-28.169zm5.109-23.378 1.24-20.395c.001-.023-.006-.044-.006-.067.001-.027.009-.052.008-.079-.001-.081-.022-.159-.034-.238-.009-.057-.01-.114-.024-.17-.036-.142-.088-.279-.156-.409-.006-.011-.008-.024-.014-.035-.078-.142-.178-.27-.291-.388-.023-.024-.051-.042-.075-.064-.074-.07-.146-.141-.232-.199l-24.655-16.283.359-17.868 38.801 24.178-3.461 39.993zm15.221 7.196 3.389-39.175 30.623-21.916-5.147 38.082zm38.242-65.176c-.002-.035-.015-.067-.019-.102-.008-.066-.022-.129-.037-.194-.023-.102-.053-.2-.092-.296-.024-.057-.049-.112-.078-.167-.052-.096-.113-.184-.181-.269-.036-.046-.069-.092-.11-.134-.084-.088-.181-.163-.283-.233-.032-.022-.055-.053-.089-.073-.007-.005-.017-.006-.025-.011-.011-.006-.019-.016-.031-.022l-41.91-23.223c-.577-.318-1.285-.306-1.85.043l-35.374 21.625c-.057.034-.102.083-.154.123-.063.048-.128.092-.184.148-.059.059-.106.127-.156.194-.044.058-.094.112-.13.175-.046.077-.075.162-.109.245-.025.063-.058.121-.076.187-.025.09-.032.184-.043.278-.007.061-.026.118-.028.18l-.376 18.779-14.39-9.503c-.596-.397-1.364-.409-1.976-.037l-20.702 12.656-.897-21.047c-.002-.044-.018-.084-.022-.128-.012-.092-.024-.184-.048-.273-.018-.066-.045-.128-.07-.192-.031-.078-.062-.155-.104-.228-.037-.065-.081-.123-.125-.183-.047-.064-.093-.126-.148-.183s-.116-.106-.179-.157c-.04-.032-.073-.072-.116-.102l-21.545-14.471 20.167-10.494c.632-.331 1.016-.998.987-1.712l-3.387-79.222c-.004-.097-.027-.19-.046-.284-.008-.039-.009-.08-.02-.118-.042-.159-.105-.31-.188-.45-.015-.026-.036-.047-.052-.071-.073-.113-.157-.217-.253-.311-.035-.034-.073-.063-.111-.094-.053-.044-.099-.094-.157-.132-.045-.03-.096-.046-.143-.072-.024-.013-.042-.033-.067-.045l-54.337-26.219c-.422-.204-.902-.241-1.347-.101l-74.11 23.084c-.005.002-.01.006-.015.008-.03.009-.056.03-.086.041-.138.053-.272.112-.391.195-.003.002-.007.003-.011.005-.041.029-.069.07-.107.102-.094.077-.188.154-.265.249-.055.068-.092.146-.137.221-.045.074-.095.143-.129.223-.041.096-.06.198-.083.3-.015.062-.042.118-.051.181-.001.009.002.018.001.027-.011.093 0 .186.004.281.003.086-.001.172.014.256.003.014 0 .027.003.041l16.536 79.868c.09.427.323.808.671 1.077l22.443 17.493-16.226 7.726c-.029.014-.052.036-.08.051-.025.014-.052.017-.076.031-.036.022-.059.054-.093.078-.093.065-.179.136-.258.216-.045.045-.089.089-.129.138-.079.098-.142.204-.2.315-.021.041-.048.078-.066.121-.064.152-.112.313-.133.481-.001.007 0 .013 0 .02-.003.026.002.052 0 .078-.011.151-.004.301.022.447.003.02-.001.039.003.058l12.44 60.109c.077.372.265.708.54.967l15.622 14.714-10.352 6.332c-.134.082-.253.183-.36.293-.029.029-.05.062-.076.093-.09.106-.166.219-.23.342-.021.041-.041.08-.059.122-.069.16-.123.328-.145.506-.02.177-.005.352.025.524.004.019-.001.038.003.058l9.638 46.554c.069.331.228.637.463.886l38.982 41.385c.059.062.127.111.192.164.024.019.044.041.069.059.122.088.251.161.388.216.006.003.011.008.018.01.011.005.024.003.036.007.205.076.42.122.639.122.182 0 .362-.037.539-.092.041-.012.08-.026.12-.042.046-.018.095-.027.141-.05.075-.036.131-.094.198-.139.048-.031.103-.046.148-.082l50.145-39.949c.46-.369.716-.932.692-1.517l-1.172-27.43 16.753 14.1c.029.025.067.034.098.057.095.07.186.144.294.196.036.016.073.023.109.038.046.018.09.032.136.046.18.057.362.096.547.096.18 0 .358-.037.535-.091.041-.013.081-.026.122-.042.042-.016.085-.024.126-.043.093-.044.168-.108.25-.165.036-.025.078-.035.112-.062l40.197-32.056c.409-.33.657-.81.689-1.332l1.223-20.115 12.231 8.513c.025.017.054.023.079.039.036.022.063.054.1.074.072.038.149.057.223.085.051.019.099.042.152.057.162.045.328.074.494.074.181 0 .361-.036.537-.09.041-.012.08-.025.12-.04.041-.016.084-.024.125-.042.1-.048.186-.115.274-.178.029-.02.064-.028.092-.05l32.791-26.134c.371-.296.613-.726.677-1.195l5.817-43.041c.006-.046-.005-.09-.002-.136.004-.073.019-.143.015-.217z"/></svg>
